src/lib/packages/icons/src/assets/filled/medal-check.svg

<svg width="24" height="24" viewBox="0 0 24 24" fill="none" xmlns="http://www.w3.org/2000/svg">
<path fill-rule="evenodd" clip-rule="evenodd" d="M13.89 6.32401L16 3H21L17.605 8.33899C17.507 8.49299 17.301 8.519 17.162 8.401C16.278 7.646 15.225 7.08201 14.068 6.76801C13.873 6.71401 13.781 6.49501 13.89 6.32401ZM6.83704 8.39999C7.72104 7.64499 8.77403 7.081 9.93103 6.767C10.127 6.714 10.219 6.49501 10.11 6.32401L8 3H3L6.39502 8.33899C6.49302 8.49299 6.69904 8.51899 6.83704 8.39999ZM18.5 14.5C18.5 18.09 15.59 21 12 21C8.41 21 5.5 18.09 5.5 14.5C5.5 10.91 8.41 8 12 8C15.59 8 18.5 10.91 18.5 14.5ZM15.03 12.303C14.737 12.01 14.262 12.01 13.969 12.303L11.166 15.106L10.0291 13.97C9.73605 13.677 9.26102 13.677 8.96802 13.97C8.67502 14.263 8.67502 14.738 8.96802 15.031L10.635 16.698C10.776 16.839 10.966 16.918 11.165 16.918C11.364 16.918 11.5549 16.839 11.6949 16.698L15.028 13.365C15.323 13.071 15.323 12.596 15.03 12.303Z" fill="currentColor"/>
</svg>

<svg xmlns="http://www.w3.org/2000/svg" width="24" height="24" fill="none"><path fill="currentColor" fill-rule="evenodd" d="M13.89 6.324 16 3h5l-3.395 5.339a.294.294 0 0 1-.443.062 7.981 7.981 0 0 0-3.094-1.633.295.295 0 0 1-.178-.444ZM6.837 8.4a7.981 7.981 0 0 1 3.094-1.633.294.294 0 0 0 .179-.443L8 3H3l3.395 5.339c.098.154.304.18.442.061ZM18.5 14.5a6.5 6.5 0 1 1-13 0 6.5 6.5 0 0 1 13 0Zm-3.47-2.197a.75.75 0 0 0-1.061 0l-2.803 2.803-1.137-1.136a.75.75 0 0 0-1.061 1.061l1.667 1.667a.749.749 0 0 0 1.06 0l3.333-3.333a.75.75 0 0 0 .002-1.062Z" clip-rule="evenodd"/></svg>
